X:1
T:Parte B
%%score { 1 | 2 }
L:1/8
M:4/4
K:Bb
V:1 treble nm="Piano" snm="Pno."
V:2 bass 
V:1
 !1!G!2!A !3!B2"^La Cumparsita [Parte B] Video-Tutorial - www.javiertucatmoreno.com/tutoriales" z GAB | %1
 A2 G2 z4 | z !5!G!5!G!4!F !4!F!3!E!3!E!2!D | !2!D4 !1!C4 | z !5!AAG G^F F2 | z !2!EED D2 z2 | %6
 z2 !4!C2 !3!B,2 !2!A,2 | !1!G,2 !5!D6 | !1!g!2!a !3!b2 z gab | a2 g2 z4 | z !5!ggf feed | !1!c8 | %12
 !1!c !2!e2 !5!g g^f g2 | !1!B !2!d2 g g^f g2 | z !2!d!5!a!4!^f !2!d!1!c z !2!^F | %15
 !3!G2"_Vuelve a la \nparte A" z2 z4 || %16
V:2
 (!1!G,3 !2!_G, !1!F,4 | !2!=E,4 !3!_E,2 !1!D,2 | !5!G,,2) z2 z4 | %3
 !5!D,,2 !3!^F,,2 !1!A,,2 !5!A,,,2 | !2!D,,2 z2 z4 | !5!!3!!1![D,^F,A,]2 z2 z2 !1!A,,2 | %6
 !5!D,,4 !3!^F,,4 | !2!G,,4 (!3!E,2 !4!D,2) | (!1!G,3 !2!_G, !1!F,4 | !2!=E,4 !3!_E,2 !1!D,2 | %10
 !5!G,,2) z2 z4 | !5!C,,2 !2!G,,2 !1!C,2 !3!D,2 | !2!E,2 z2 !4!!2!!1![E,G,C]2 z2 | %13
 !5!!2!!1![D,G,B,]2 z2 [D,G,B,]2 z2 | !5!!3!!1![D,^F,A,]2 z2 [D,F,A,]2 z2 | %15
 [D,G,B,]2 !2!G,2 !3!F,2 !4!E,2 || %16

